recipes/mattermost/icon.svg

<svg height="80" viewBox="0 0 80 80" width="80" xmlns="http://www.w3.org/2000/svg"><path d="m76.1710084 22.92625c-2.641875-5.705625-6.46625-10.5053125-11.53125-14.53625.135 2.73625.429375 8.58875.429375 8.58875s.3153125.4146875.44375.5940625c5.1184375 7.14875 6.9890625 15.0721875 5.2840625 23.6784375-3.41875 17.256875-20.2409375 27.784375-37.28875 23.480625-14.9662498-3.7784375-24.96187481-19.08125-22.1315623-34.2528125 2.234375-11.9771875 9.313125-19.9559375 20.8078123-24.0103125l.4165625-.1575.326875-.241875c1.393125-1.97 2.7525-3.9640625 4.2028125-6.069375-17.4209373.863125-34.94187482 14.84-36.94937482 36.100625-1.9425 20.5725 11.92781252 38.9190625 31.74874982 42.945 20.655 4.1953125 40.3178125-7.990625 46.2596875-27.4925 2.97125-9.751875 2.2759375-19.35125-2.01875-28.626875zm-49.1596873 12.86625c.87125 8.2771875 8.0456248 13.918125 16.3446873 13.0009375 8.15375-.90125 14.114375-8.8778125 12.5709375-16.9475-1.203125-6.291875-2.5328125-12.559375-3.80875-18.8371875-.5278125-2.5978125-1.061875-5.1946875-1.6221875-7.9346875-.220625.1940625-.323125.2759375-.4165625.3675-2.79375 2.73875-5.5859375 5.4790625-8.3796875 8.2178125-3.401875 3.3353125-6.7990625 6.675-10.2090625 10.001875-3.4199998 3.3365625-4.9768748 7.4084375-4.4793748 12.13125z" fill="#0072c6" fill-rule="evenodd"/></svg>

<?xml version="1.0" encoding="UTF-8" standalone="no"?>
<svg width="80px" height="80px" viewBox="0 0 80 80" version="1.1" xmlns="http://www.w3.org/2000/svg" xmlns:xlink="http://www.w3.org/1999/xlink">
    <!-- Generator: Sketch 3.7.2 (28276) - http://www.bohemiancoding.com/sketch -->
    <title>mattermost</title>
    <desc>Created with Sketch.</desc>
    <defs></defs>
    <g id="icons" stroke="none" stroke-width="1" fill="none" fill-rule="evenodd">
        <g id="mattermost" fill="#0072C6">
            <g id="mattermost-seeklogo.com">
                <path d="M76.1710084,22.92625 C73.5291334,17.220625 69.7047584,12.4209375 64.6397584,8.39 C64.7747584,11.12625 65.0691334,16.97875 65.0691334,16.97875 C65.0691334,16.97875 65.3844459,17.3934375 65.5128834,17.5728125 C70.6313209,24.7215625 72.5019459,32.645 70.7969459,41.25125 C67.3781959,58.508125 50.5560084,69.035625 33.5081959,64.731875 C18.5419461,60.9534375 8.54632109,45.650625 11.3766336,30.4790625 C13.6110086,18.501875 20.6897586,10.523125 32.1844459,6.46875 L32.6010084,6.31125 L32.9278834,6.069375 C34.3210084,4.099375 35.6803834,2.1053125 37.1306959,0 C19.7097586,0.863125 2.18882108,14.84 0.181321079,36.100625 C-1.76117892,56.673125 12.1091336,75.0196875 31.9300709,79.045625 C52.5850709,83.2409375 72.2478834,71.055 78.1897584,51.553125 C81.1610084,41.80125 80.4656959,32.201875 76.1710084,22.92625 L76.1710084,22.92625 Z M27.0113211,35.7925 C27.8825711,44.0696875 35.0569459,49.710625 43.3560084,48.7934375 C51.5097584,47.8921875 57.4703834,39.915625 55.9269459,31.8459375 C54.7238209,25.5540625 53.3941334,19.2865625 52.1181959,13.00875 C51.5903834,10.4109375 51.0563209,7.8140625 50.4960084,5.0740625 C50.2753834,5.268125 50.1728834,5.35 50.0794459,5.4415625 C47.2856959,8.1803125 44.4935084,10.920625 41.6997584,13.659375 C38.2978834,16.9946875 34.9006959,20.334375 31.4906959,23.66125 C28.0706961,26.9978125 26.5138211,31.0696875 27.0113211,35.7925 L27.0113211,35.7925 Z" id="Shape"></path>
            </g>
        </g>
    </g>
</svg>
